icons/telescope-16.svg

<svg width="16" height="16" viewBox="0 0 16 16" xmlns="http://www.w3.org/2000/svg">
  <path fill-rule="evenodd" clip-rule="evenodd" d="M14.1836 1.14335C13.6746 0.26168 12.5233 -0.00105552 11.6822 0.572491L0.911353 7.91687C0.154777 8.43276 -0.0761587 9.44468 0.381704 10.2377L0.828896 11.0123C1.28676 11.8053 2.27858 12.1113 3.10364 11.714L14.8495 6.0584C15.7667 5.61673 16.1148 4.48833 15.6058 3.60666L14.1836 1.14335ZM12.5272 1.8118C12.6474 1.72986 12.8119 1.7674 12.8846 1.89335L14.3068 4.35666C14.3795 4.48261 14.3298 4.64381 14.1987 4.70691L12.1827 5.67763L10.6785 3.07238L12.5272 1.8118ZM9.43575 3.91981L10.8274 6.33021L5.40623 8.9405L4.46459 7.30953L9.43575 3.91981ZM3.2218 8.15696L1.75641 9.15617C1.64832 9.22987 1.61533 9.37443 1.68074 9.48772L2.12793 10.2623C2.19334 10.3756 2.33503 10.4193 2.4529 10.3625L4.05094 9.59307L3.2218 8.15696ZM9.47544 10.4628C9.26619 10.157 8.86496 10.0498 8.53109 10.2106L6.72225 11.0815C6.604 11.1385 6.50276 11.2255 6.42865 11.3338L4.38102 14.3265C4.14712 14.6683 4.23463 15.1351 4.57649 15.369C4.91834 15.6029 5.38508 15.5153 5.61898 15.1735L7.5 12.4243V15.25C7.5 15.6642 7.83579 16 8.25 16C8.66421 16 9 15.6642 9 15.25V12.4243L10.881 15.1735C11.1149 15.5153 11.5817 15.6029 11.9235 15.369C12.2654 15.1351 12.3529 14.6683 12.119 14.3265L9.47544 10.4628Z"/>
</svg>

<svg xmlns="http://www.w3.org/2000/svg" width="16" height="16" viewBox="0 0 16 16"><path fill-rule="evenodd" d="M14.184 1.143a1.75 1.75 0 00-2.502-.57L.912 7.916a1.75 1.75 0 00-.53 2.32l.447.775a1.75 1.75 0 002.275.702l11.745-5.656a1.75 1.75 0 00.757-2.451l-1.422-2.464zm-1.657.669a.25.25 0 01.358.081l1.422 2.464a.25.25 0 01-.108.35l-2.016.97-1.505-2.605 1.85-1.26zM9.436 3.92l1.391 2.41-5.42 2.61-.942-1.63 4.97-3.39zM3.222 8.157l-1.466 1a.25.25 0 00-.075.33l.447.775a.25.25 0 00.325.1l1.598-.769-.83-1.436zm6.253 2.306a.75.75 0 00-.944-.252l-1.809.87a.75.75 0 00-.293.253L4.38 14.326a.75.75 0 101.238.848l1.881-2.75v2.826a.75.75 0 001.5 0v-2.826l1.881 2.75a.75.75 0 001.238-.848l-2.644-3.863z"/></svg>
